components/Common/Svg/svgs/research.svg

<svg width="42" height="42" viewBox="0 0 42 42" fill="none" xmlns="http://www.w3.org/2000/svg">
<path d="M42 21.0009C42 20.4486 41.5523 20.0009 41 20.0009C40.4477 20.0009 40 20.4486 40 21.0009H42ZM37.6294 32.1123L36.7979 31.5567L37.6294 32.1123ZM28.6537 39.4784L28.271 38.5546V38.5546L28.6537 39.4784ZM17.0982 40.6166L16.9031 41.5973H16.9031L17.0982 40.6166ZM6.85786 35.143L6.15076 35.8501L6.85786 35.143ZM1.38429 24.9027L0.403509 25.0978L0.403509 25.0978L1.38429 24.9027ZM2.52241 13.3472L1.59853 12.9645H1.59853L2.52241 13.3472ZM9.8886 4.37146L9.33302 3.53999L9.8886 4.37146ZM21 2.00085C21.5523 2.00085 22 1.55314 22 1.00085C22 0.44857 21.5523 0.000854492 21 0.000854492V2.00085ZM40 21.0009C40 24.7587 38.8857 28.4322 36.7979 31.5567L38.4609 32.6678C40.7684 29.2144 42 25.1543 42 21.0009H40ZM36.7979 31.5567C34.7102 34.6812 31.7428 37.1165 28.271 38.5546L29.0364 40.4023C32.8736 38.8129 36.1534 36.1213 38.4609 32.6678L36.7979 31.5567ZM28.271 38.5546C24.7992 39.9926 20.9789 40.3689 17.2933 39.6358L16.9031 41.5973C20.9767 42.4076 25.1991 41.9918 29.0364 40.4023L28.271 38.5546ZM17.2933 39.6358C13.6076 38.9027 10.2222 37.0931 7.56497 34.4359L6.15076 35.8501C9.08766 38.787 12.8295 40.7871 16.9031 41.5973L17.2933 39.6358ZM7.56497 34.4359C4.90777 31.7787 3.0982 28.3932 2.36508 24.7076L0.403509 25.0978C1.2138 29.1714 3.21386 32.9132 6.15076 35.8501L7.56497 34.4359ZM2.36508 24.7076C1.63196 21.0219 2.00822 17.2017 3.44629 13.7299L1.59853 12.9645C0.00908959 16.8018 -0.40678 21.0242 0.403509 25.0978L2.36508 24.7076ZM3.44629 13.7299C4.88435 10.2581 7.31963 7.29068 10.4442 5.20293L9.33302 3.53999C5.87959 5.8475 3.18797 9.12725 1.59853 12.9645L3.44629 13.7299ZM10.4442 5.20293C13.5687 3.11519 17.2422 2.00085 21 2.00085V0.000854492C16.8466 0.000854492 12.7865 1.23248 9.33302 3.53999L10.4442 5.20293Z" fill="#161616"/>
<path d="M34.7299 21.0006C34.7299 20.4483 34.2822 20.0006 33.7299 20.0006C33.1777 20.0006 32.7299 20.4483 32.7299 21.0006H34.7299ZM18.5197 33.4833L18.3246 34.4641H18.3246L18.5197 33.4833ZM12.0031 30.0001L12.7102 29.293H12.7102L12.0031 30.0001ZM8.51994 23.4836L9.50073 23.2885L8.51994 23.4836ZM9.2442 16.1301L8.32032 15.7474L9.2442 16.1301ZM13.9318 10.4182L13.3762 9.58678L13.9318 10.4182ZM21.0027 9.27332C21.5549 9.27332 22.0027 8.8256 22.0027 8.27332C22.0027 7.72103 21.5549 7.27332 21.0027 7.27332V9.27332ZM32.7299 21.0006C32.7299 23.32 32.0421 25.5874 30.7535 27.5159L32.4165 28.6271C33.9248 26.3696 34.7299 23.7156 34.7299 21.0006H32.7299ZM30.7535 27.5159C29.4649 29.4445 27.6334 30.9476 25.4905 31.8352L26.2559 33.6829C28.7642 32.644 30.9081 30.8845 32.4165 28.6271L30.7535 27.5159ZM25.4905 31.8352C23.3476 32.7228 20.9897 32.955 18.7148 32.5025L18.3246 34.4641C20.9874 34.9938 23.7475 34.7219 26.2559 33.6829L25.4905 31.8352ZM18.7148 32.5025C16.4399 32.05 14.3503 30.9331 12.7102 29.293L11.296 30.7072C13.2158 32.627 15.6618 33.9344 18.3246 34.4641L18.7148 32.5025ZM12.7102 29.293C11.0701 27.6529 9.95323 25.5633 9.50073 23.2885L7.53916 23.6786C8.06883 26.3415 9.37622 28.7874 11.296 30.7072L12.7102 29.293ZM9.50073 23.2885C9.04823 21.0136 9.28047 18.6556 10.1681 16.5128L8.32032 15.7474C7.28133 18.2557 7.00949 21.0158 7.53916 23.6786L9.50073 23.2885ZM10.1681 16.5128C11.0557 14.3699 12.5588 12.5383 14.4873 11.2497L13.3762 9.58678C11.1188 11.0952 9.3593 13.2391 8.32032 15.7474L10.1681 16.5128ZM14.4873 11.2497C16.4159 9.96111 18.6832 9.27332 21.0027 9.27332V7.27332C18.2877 7.27332 15.6336 8.07841 13.3762 9.58678L14.4873 11.2497Z" fill="#161616"/>
<circle cx="20.9522" cy="21.0006" r="3.0303" fill="#161616"/>
<path d="M20 21.606C20 22.1582 20.4477 22.606 21 22.606C21.5523 22.606 22 22.1582 22 21.606L20 21.606ZM22 0.999895C22 0.447611 21.5523 -0.00010488 21 -0.000104904C20.4477 -0.000104928 20 0.447611 20 0.999895L22 0.999895ZM22 21.606L22 0.999895L20 0.999895L20 21.606L22 21.606Z" fill="#161616"/>
</svg>

<svg width="42" height="42" viewBox="0 0 42 42" fill="none" xmlns="http://www.w3.org/2000/svg"><path d="M42 21a1 1 0 1 0-2 0h2Zm-4.37 11.112-.832-.555.831.555Zm-8.976 7.366-.383-.923.383.923Zm-11.556 1.139-.195.98.195-.98Zm-10.24-5.474-.707.707.707-.707Zm-5.474-10.24-.98.195.98-.195Zm1.138-11.556-.923-.383.923.383ZM9.89 4.371l-.556-.831.556.831ZM21 2.001a1 1 0 1 0 0-2v2Zm19 19a19 19 0 0 1-3.202 10.556l1.663 1.11A21 21 0 0 0 42 21.002h-2Zm-3.202 10.556a19 19 0 0 1-8.527 6.998l.765 1.847a21 21 0 0 0 9.425-7.734l-1.663-1.111Zm-8.527 6.998a19 19 0 0 1-10.978 1.08l-.39 1.962a21 21 0 0 0 12.133-1.195l-.765-1.847Zm-10.978 1.08a19 19 0 0 1-9.728-5.2L6.151 35.85a21 21 0 0 0 10.752 5.747l.39-1.961Zm-9.728-5.2a19 19 0 0 1-5.2-9.727l-1.961.39A21 21 0 0 0 6.15 35.85l1.414-1.414Zm-5.2-9.727A19 19 0 0 1 3.446 13.73L1.6 12.964A21 21 0 0 0 .404 25.099l1.961-.39ZM3.446 13.73a19 19 0 0 1 6.998-8.527L9.333 3.54a21 21 0 0 0-7.734 9.425l1.847.765Zm6.998-8.527A19 19 0 0 1 21 2V0A21 21 0 0 0 9.333 3.54l1.111 1.663ZM34.73 21a1 1 0 1 0-2 0h2ZM18.52 33.484l-.195.981.195-.98ZM12.003 30l.707-.707-.707.707ZM8.52 23.484l.98-.196-.98.196Zm.724-7.354-.924-.383.924.383Zm4.688-5.712-.556-.831.556.831Zm7.07-1.145a1 1 0 0 0 0-2v2ZM32.73 21.001c0 2.319-.688 4.586-1.976 6.515l1.662 1.111a13.728 13.728 0 0 0 2.314-7.626h-2Zm-1.976 6.515a11.727 11.727 0 0 1-5.264 4.32l.766 1.847a13.727 13.727 0 0 0 6.16-5.056l-1.662-1.111Zm-5.264 4.32c-2.142.887-4.5 1.119-6.775.666l-.39 1.962c2.662.53 5.422.258 7.93-.781l-.764-1.848Zm-6.775.666a11.727 11.727 0 0 1-6.005-3.209l-1.414 1.414a13.728 13.728 0 0 0 7.029 3.757l.39-1.962Zm-6.005-3.209a11.727 11.727 0 0 1-3.21-6.005l-1.96.39a13.727 13.727 0 0 0 3.756 7.03l1.414-1.415ZM9.5 23.288a11.727 11.727 0 0 1 .668-6.775l-1.848-.766a13.727 13.727 0 0 0-.78 7.932l1.96-.39Zm.668-6.775a11.727 11.727 0 0 1 4.32-5.263l-1.112-1.663a13.728 13.728 0 0 0-5.056 6.16l1.848.766Zm4.32-5.263a11.728 11.728 0 0 1 6.515-1.977v-2c-2.715 0-5.37.805-7.627 2.314l1.111 1.663Z" fill="#161616"/><circle cx="20.952" cy="21.001" r="3.03" fill="#161616"/><path d="M20 21.606a1 1 0 0 0 2 0h-2ZM22 1a1 1 0 1 0-2 0h2Zm0 20.606V1h-2v20.606h2Z" fill="#161616"/></svg>
